poi/svg/2509.svg

<?xml version="1.0" encoding="UTF-8" standalone="no"?>
<svg
   xmlns:dc="http://purl.org/dc/elements/1.1/"
   xmlns:cc="http://creativecommons.org/ns#"
   xmlns:rdf="http://www.w3.org/1999/02/22-rdf-syntax-ns#"
   xmlns:svg="http://www.w3.org/2000/svg"
   xmlns="http://www.w3.org/2000/svg"
   xmlns:sodipodi="http://sodipodi.sourceforge.net/DTD/sodipodi-0.dtd"
   xmlns:inkscape="http://www.inkscape.org/namespaces/inkscape"
   inkscape:version="1.0 (4035a4fb49, 2020-05-01)"
   sodipodi:docname="2509.svg"
   id="svg20"
   version="1.2"
   viewBox="0 0 42.519639 42.519639"
   height="14.999999mm"
   width="14.999999mm">
  <metadata
     id="metadata24">
    <rdf:RDF>
      <cc:Work
         rdf:about="">
        <dc:format>image/svg+xml</dc:format>
        <dc:type
           rdf:resource="http://purl.org/dc/dcmitype/StillImage" />
        <dc:title>Qt SVG Document</dc:title>
      </cc:Work>
    </rdf:RDF>
  </metadata>
  <sodipodi:namedview
     inkscape:current-layer="svg20"
     inkscape:window-maximized="0"
     inkscape:window-y="0"
     inkscape:window-x="0"
     inkscape:cy="28.346482"
     inkscape:cx="28.346482"
     inkscape:zoom="5.8410537"
     showgrid="false"
     id="namedview22"
     inkscape:window-height="480"
     inkscape:window-width="1034"
     inkscape:pageshadow="2"
     inkscape:pageopacity="0"
     guidetolerance="10"
     gridtolerance="10"
     objecttolerance="10"
     borderopacity="1"
     bordercolor="#666666"
     pagecolor="#ffffff" />
  <title
     id="title2">Qt SVG Document</title>
  <desc
     id="desc4">Generated with Qt</desc>
  <defs
     id="defs6" />
  <g
     transform="translate(5.25984,5.25984)"
     id="g18"
     stroke-linejoin="bevel"
     stroke-linecap="square"
     fill-rule="evenodd"
     stroke-width="1"
     stroke="#000000"
     fill="none">
    <g
       id="g10"
       font-style="normal"
       font-weight="400"
       font-size="7.8px"
       font-family="'MS Shell Dlg 2'"
       stroke="none"
       fill-opacity="1"
       fill="#489174">
      <path
         id="path8"
         d="M 37.2598,16 C 37.2598,27.7415 27.7415,37.2598 16,37.2598 4.25851,37.2598 -5.25984,27.7415 -5.25984,16 -5.25984,4.25851 4.25851,-5.25984 16,-5.25984 27.7415,-5.25984 37.2598,4.25851 37.2598,16"
         fill-rule="evenodd"
         vector-effect="non-scaling-stroke" />
    </g>
    <g
       id="g14"
       font-style="normal"
       font-weight="400"
       font-size="7.8px"
       font-family="'MS Shell Dlg 2'"
       transform="translate(16.5669,11.4646)"
       stroke="none"
       fill-opacity="0.94902"
       fill="#ffffff">
      <path
         id="path12"
         d="m 2.97266,11.7104 -0.08399,1.4278 -5.41699,-0.4829 0.08398,-1.8897 5.417,0.9448 M 4.08545,2.05225 3.91748,3.85791 -2.15039,0.750488 -1.96143,-2.37793 4.08545,2.05225 M 4.48438,-2.12598 4.31641,-0.320313 -1.5835,-5.44336 -1.49951,-8.4458 4.48438,-2.12598 M -2.69629,15.2378 v -1.5327 l 5.375,0.5879 -0.08398,1.2177 -5.29102,-0.2729 m -0.12598,1.1128 h 5.33301 l -0.10498,0.7768 -5.22803,0.8609 V 16.3506 M 3.35059,9.04395 3.14063,10.4717 -2.44434,9.16992 V 7.1543 L 3.35059,9.04395 M 3.70752,5.74756 3.45557,7.55322 -2.36035,5.83154 -2.23438,3.375 3.70752,5.74756 M -9.37305,15.2378 -9.45703,14.167 -3.64111,13.915 v 1.4908 l -5.73194,-0.168 m -0.16797,-2.1836 -0.16796,-1.4277 6.15185,-0.6929 v 1.9526 l -5.98389,0.168 M -9.83496,10.3037 -9.91895,9.16992 -3.55713,7.46924 V 9.2749 l -6.27783,1.0288 m -0.27294,-2.93944 -0.21,-1.53272 6.84476,-2.37256 -0.08399,2.58252 -6.55077,1.32276 m -0.4619,-5.50098 7.18064,-4.07324 -0.08398,3.044433 -6.92876,3.023437 -0.1679,-1.99463 m 7.09666,-7.30664 -7.39066,4.556153 -0.1889,-1.973633 7.66354,-5.58496 -0.08398,3.00244 m 0.46191,-3.7793 h 1.0498 L -3.01123,18.1772 H -3.38916 L -3.01123,-9.22266 M 5.59717,14.8599 5.80713,13.999 10.1533,14.7759 9.98535,15.3218 5.59717,14.8599 M 11.0981,10.9336 6.75195,8.87598 6.91992,7.84717 l 4.47218,2.1416 -0.294,0.94483 m -0.5459,2.2886 -0.1889,0.7768 -4.3882,-0.8608 0.10498,-0.8609 4.47212,0.9449 m 0.378,-1.4278 -0.21,0.7769 -4.43016,-1.4067 0.16797,-0.9449 4.47219,1.5747 m -7.22268,3.8003 1.0708,0.21 -0.20996,1.0288 -0.94482,-0.168 0.08398,-1.0708 M 3.91748,14.6499 4.00146,13.8311 5.03027,13.915 4.8623,14.7759 3.91748,14.6499 m 1.42773,-2.4565 -0.23095,0.8608 -0.94483,-0.084 0.14698,-0.7768 h 1.0288 M 5.72314,9.98877 5.51318,10.8496 H 4.48438 L 4.65234,9.98877 h 1.0708 M 6.08008,7.76318 5.89111,8.79199 H 4.8623 L 4.94629,7.93115 6.08008,7.76318 M 6.37402,7.55322 H 6.75195 L 4.94629,17.3164 H 4.65234 L 6.37402,7.55322 M -11.7246,-2.60889 -11.2627,-2.94482 -9.37305,17.3164 H -9.625 L -11.7246,-2.60889 M 4.65234,-2.20996 4.94629,-1.91602 2.59473,17.2114 H 2.51074 l 2.1416,-19.42136 m -13.79443,19.52636 -0.10498,-1.1338 1.51172,0.084 v 1.2598 l -1.40674,-0.21 m 3.56934,0.3779 v -1.2387 l 1.93164,0.084 -0.12598,1.3227 -1.80566,-0.168 M 5.26123,17.0015 5.4292,15.8887 h 2.09961 l -0.29395,0.9448 -1.97363,0.168 M 8.55762,15.9727 H 9.77539 L 9.58643,16.7495 H 8.26367 L 8.55762,15.9727 M 11.5811,9.98877 H 11.791 L 9.90137,16.7495 H 9.69141 L 11.5811,9.98877"
         fill-rule="evenodd"
         vector-effect="none" />
    </g>
    <g
       id="g16"
       font-style="normal"
       font-weight="400"
       font-size="7.8px"
       font-family="'MS Shell Dlg 2'"
       stroke="none"
       fill-opacity="1"
       fill="#489174" />
  </g>
</svg>

<?xml version="1.0" encoding="UTF-8" standalone="no"?>
<svg width="11.2889mm" height="11.2889mm"
 viewBox="0 0 32 32"
 xmlns="http://www.w3.org/2000/svg" xmlns:xlink="http://www.w3.org/1999/xlink"  version="1.2" baseProfile="tiny">
<title>Qt SVG Document</title>
<desc>Generated with Qt</desc>
<defs>
</defs>
<g fill="none" stroke="black" stroke-width="1" fill-rule="evenodd" stroke-linecap="square" stroke-linejoin="bevel" >

<g fill="#489174" fill-opacity="1" stroke="none" transform="matrix(1,0,0,1,0,0)"
font-family="MS Shell Dlg 2" font-size="7.8" font-weight="400" font-style="normal" 
>
<path vector-effect="non-scaling-stroke" fill-rule="evenodd" d="M37.2598,16 C37.2598,27.7415 27.7415,37.2598 16,37.2598 C4.25851,37.2598 -5.25984,27.7415 -5.25984,16 C-5.25984,4.25851 4.25851,-5.25984 16,-5.25984 C27.7415,-5.25984 37.2598,4.25851 37.2598,16 "/>
</g>

<g fill="#ffffff" fill-opacity="0.94902" stroke="none" transform="matrix(1,0,0,1,16.5669,11.4646)"
font-family="MS Shell Dlg 2" font-size="7.8" font-weight="400" font-style="normal" 
>
<path vector-effect="none" fill-rule="evenodd" d="M2.97266,11.7104 L2.88867,13.1382 L-2.52832,12.6553 L-2.44434,10.7656 L2.97266,11.7104 M4.08545,2.05225 L3.91748,3.85791 L-2.15039,0.750488 L-1.96143,-2.37793 L4.08545,2.05225 M4.48438,-2.12598 L4.31641,-0.320313 L-1.5835,-5.44336 L-1.49951,-8.4458 L4.48438,-2.12598 M-2.69629,15.2378 L-2.69629,13.7051 L2.67871,14.293 L2.59473,15.5107 L-2.69629,15.2378 M-2.82227,16.3506 L2.51074,16.3506 L2.40576,17.1274 L-2.82227,17.9883 L-2.82227,16.3506 M3.35059,9.04395 L3.14063,10.4717 L-2.44434,9.16992 L-2.44434,7.1543 L3.35059,9.04395 M3.70752,5.74756 L3.45557,7.55322 L-2.36035,5.83154 L-2.23438,3.375 L3.70752,5.74756 M-9.37305,15.2378 L-9.45703,14.167 L-3.64111,13.915 L-3.64111,15.4058 L-9.37305,15.2378 M-9.54102,13.0542 L-9.70898,11.6265 L-3.55713,10.9336 L-3.55713,12.8862 L-9.54102,13.0542 M-9.83496,10.3037 L-9.91895,9.16992 L-3.55713,7.46924 L-3.55713,9.2749 L-9.83496,10.3037 M-10.1079,7.36426 L-10.3179,5.83154 L-3.47314,3.45898 L-3.55713,6.0415 L-10.1079,7.36426 M-10.5698,1.86328 L-3.38916,-2.20996 L-3.47314,0.834473 L-10.4019,3.85791 L-10.5698,1.86328 M-3.47314,-5.44336 L-10.8638,-0.887207 L-11.0527,-2.86084 L-3.38916,-8.4458 L-3.47314,-5.44336 M-3.01123,-9.22266 L-1.96143,-9.22266 L-3.01123,18.1772 L-3.38916,18.1772 L-3.01123,-9.22266 M5.59717,14.8599 L5.80713,13.999 L10.1533,14.7759 L9.98535,15.3218 L5.59717,14.8599 M11.0981,10.9336 L6.75195,8.87598 L6.91992,7.84717 L11.3921,9.98877 L11.0981,10.9336 M10.5522,13.2222 L10.3633,13.999 L5.9751,13.1382 L6.08008,12.2773 L10.5522,13.2222 M10.9302,11.7944 L10.7202,12.5713 L6.29004,11.1646 L6.45801,10.2197 L10.9302,11.7944 M3.70752,15.5947 L4.77832,15.8047 L4.56836,16.8335 L3.62354,16.6655 L3.70752,15.5947 M3.91748,14.6499 L4.00146,13.8311 L5.03027,13.915 L4.8623,14.7759 L3.91748,14.6499 M5.34521,12.1934 L5.11426,13.0542 L4.16943,12.9702 L4.31641,12.1934 L5.34521,12.1934 M5.72314,9.98877 L5.51318,10.8496 L4.48438,10.8496 L4.65234,9.98877 L5.72314,9.98877 M6.08008,7.76318 L5.89111,8.79199 L4.8623,8.79199 L4.94629,7.93115 L6.08008,7.76318 M6.37402,7.55322 L6.75195,7.55322 L4.94629,17.3164 L4.65234,17.3164 L6.37402,7.55322 M-11.7246,-2.60889 L-11.2627,-2.94482 L-9.37305,17.3164 L-9.625,17.3164 L-11.7246,-2.60889 M4.65234,-2.20996 L4.94629,-1.91602 L2.59473,17.2114 L2.51074,17.2114 L4.65234,-2.20996 M-9.14209,17.3164 L-9.24707,16.1826 L-7.73535,16.2666 L-7.73535,17.5264 L-9.14209,17.3164 M-5.57275,17.6943 L-5.57275,16.4556 L-3.64111,16.5396 L-3.76709,17.8623 L-5.57275,17.6943 M5.26123,17.0015 L5.4292,15.8887 L7.52881,15.8887 L7.23486,16.8335 L5.26123,17.0015 M8.55762,15.9727 L9.77539,15.9727 L9.58643,16.7495 L8.26367,16.7495 L8.55762,15.9727 M11.5811,9.98877 L11.791,9.98877 L9.90137,16.7495 L9.69141,16.7495 L11.5811,9.98877"/>
</g>

<g fill="#489174" fill-opacity="1" stroke="none" transform="matrix(1,0,0,1,0,0)"
font-family="MS Shell Dlg 2" font-size="7.8" font-weight="400" font-style="normal" 
>
</g>
</g>
</svg>
